bai.min.svg

<svg viewBox="0 0 40 40" fill="none" xmlns="http://www.w3.org/2000/svg">
  <g clip-path="url(#clip0_3_177)">
    <path fill-rule="evenodd" clip-rule="evenodd"
      d="M22.1439 1.89789C22.0474 1.40387 21.7947 0.95394 21.423 0.614449C21.0514 0.274957 20.5805 0.0638787 20.0797 0.0123421C19.579 -0.0391945 19.075 0.0715391 18.642 0.328212C18.209 0.584885 17.8699 0.973911 17.6748 1.43792L17.6691 1.43432C16.8869 3.18675 15.4709 4.57856 13.7053 5.33046C12.0142 6.05763 10.1166 6.14625 8.36512 5.57985C7.90341 5.3577 7.38171 5.29265 6.87959 5.39465C6.37747 5.49664 5.92249 5.76006 5.58406 6.14475C5.24562 6.52943 5.0423 7.01425 5.00511 7.52526C4.96792 8.03627 5.0989 8.54542 5.37808 8.97505C5.88263 10.595 5.85244 12.3846 5.17396 14.0786C4.53802 15.6739 3.38018 17.0065 1.88937 17.859C1.39669 17.9572 0.948473 18.2107 0.610567 18.5825C0.272662 18.9542 0.0628842 19.4245 0.0120535 19.9243C-0.0387772 20.424 0.0720192 20.9269 0.328165 21.3591C0.58431 21.7912 0.972301 22.1298 1.43513 22.3251L1.43226 22.3323C3.18473 23.1145 4.57657 24.5304 5.32849 26.296C6.05737 27.9917 6.14423 29.8947 5.57285 31.6497C5.35318 32.1126 5.29096 32.6347 5.39571 33.1363C5.50045 33.6379 5.7664 34.0914 6.15299 34.4278C6.53957 34.7641 7.02557 34.9647 7.53683 34.9991C8.0481 35.0334 8.55656 34.8996 8.98466 34.618C10.6551 34.0989 12.4535 34.1722 14.0761 34.8257C15.6749 35.4628 17.0098 36.6239 17.8624 38.1188C17.9621 38.6105 18.2168 39.0573 18.5889 39.3937C18.9611 39.7302 19.4312 39.9386 19.9304 39.9884C20.4296 40.0382 20.9317 39.9268 21.363 39.6706C21.7943 39.4143 22.1322 39.0267 22.3271 38.5644L22.3343 38.5673C23.1163 36.815 24.532 35.4232 26.2974 34.6712C27.9893 33.9439 29.8877 33.8558 31.6397 34.4232C32.1024 34.6454 32.6252 34.7099 33.1281 34.6067C33.6309 34.5036 34.0861 34.2385 34.424 33.852C34.7618 33.4656 34.9637 32.9791 34.9988 32.467C35.0339 31.9549 34.9001 31.4454 34.6181 31.0165C34.099 29.3456 34.1726 27.5466 34.8265 25.9237C35.4631 24.3264 36.6229 22.9923 38.1162 22.1397C38.6082 22.0405 39.0555 21.7861 39.3924 21.4141C39.7294 21.042 39.9382 20.5717 39.9883 20.0723C40.0384 19.5728 39.9271 19.0705 39.6707 18.6389C39.4144 18.2074 39.0265 17.8693 38.5639 17.6743L38.5668 17.6679C36.8142 16.886 35.4221 15.4704 34.6699 13.7049C33.9422 12.0121 33.8543 10.1126 34.4226 8.35983C34.6447 7.89675 34.7089 7.37362 34.6052 6.87059C34.5016 6.36757 34.2358 5.91241 33.8488 5.57485C33.4617 5.23728 32.9746 5.03594 32.4621 5.00166C31.9497 4.96739 31.4401 5.10207 31.0115 5.38508C29.3958 5.88459 27.6119 5.85296 25.9229 5.17666C24.3292 4.5416 22.9975 3.38569 22.1446 1.89717L22.1439 1.89789ZM30.4667 24.178C29.8052 25.8228 29.5076 27.5913 29.5942 29.362C27.8279 29.3189 26.0732 29.6572 24.4495 30.3539C22.8175 31.05 21.3557 32.0913 20.1645 33.4062C18.9454 32.1253 17.4641 31.1226 15.8219 30.4667C14.177 29.8054 12.4085 29.508 10.6377 29.5949C10.6811 27.8282 10.3428 26.0729 9.64589 24.4489C8.95003 22.8182 7.90945 21.3574 6.59561 20.1668C7.87562 18.948 8.87757 17.4673 9.53305 15.8258C10.1944 14.1807 10.4918 12.4119 10.4049 10.641C12.1724 10.6844 13.9284 10.3458 15.5531 9.64848C17.1835 8.95299 18.6441 7.91293 19.8346 6.5997C21.0533 7.87935 22.5338 8.88102 24.175 9.53636C25.8199 10.1976 27.5885 10.495 29.3592 10.4082C29.3163 12.1744 29.6548 13.9292 30.3517 15.5527C31.0475 17.1843 32.0884 18.6459 33.4027 19.8369C32.123 21.0559 31.122 22.5366 30.4667 24.178ZM16.1719 21.2542C16.0369 21.0675 15.8663 20.9091 15.6701 20.7882C15.4738 20.6673 15.2557 20.5863 15.0281 20.5497C14.8005 20.5132 14.5679 20.5218 14.3437 20.5751C14.1194 20.6284 13.9079 20.7253 13.7211 20.8604C13.5343 20.9955 13.3759 21.166 13.2551 21.3622C13.1342 21.5585 13.0531 21.7766 13.0166 22.0042C12.98 22.2318 12.9886 22.4644 13.0419 22.6886C13.0952 22.9129 13.1922 23.1244 13.3272 23.3112C14.0962 24.3724 15.1063 25.2357 16.2742 25.8301C17.4422 26.4245 18.7347 26.733 20.0452 26.7301C22.8108 26.7301 25.2653 25.3825 26.7631 23.3112C27.0359 22.934 27.1477 22.4638 27.0738 22.0042C26.9999 21.5446 26.7465 21.1332 26.3693 20.8604C25.992 20.5876 25.5219 20.4759 25.0623 20.5497C24.6026 20.6236 24.1912 20.877 23.9184 21.2542C23.4747 21.8655 22.8921 22.3624 22.2185 22.704C21.5449 23.0457 20.7997 23.2223 20.0445 23.2192C19.2894 23.222 18.5445 23.0454 17.8712 22.7037C17.1979 22.3621 16.6155 21.8653 16.1719 21.2542Z"
      fill="url(#paint0_linear_3_177)" />
  </g>
  <defs>
    <linearGradient id="paint0_linear_3_177" x1="10.8332" y1="-1.66692" x2="25.8332" y2="34.9991"
      gradientUnits="userSpaceOnUse">
      <stop stop-color="#FFAE31" />
      <stop offset="0.601" stop-color="#AB5EBD" />
      <stop offset="1" stop-color="#4D40B5" />
    </linearGradient>
    <clipPath id="clip0_3_177">
      <rect />
    </clipPath>
  </defs>
</svg>

<svg width="40" height="40" fill="none" xmlns="http://www.w3.org/2000/svg"><g clip-path="url(#prefix__clip0_3_177)"><path fill-rule="evenodd" clip-rule="evenodd" d="M22.144 1.898a2.348 2.348 0 00-4.47-.46l-.005-.004a7.603 7.603 0 01-3.964 3.896 7.6 7.6 0 01-5.34.25 2.348 2.348 0 00-2.987 3.395 7.594 7.594 0 01-.204 5.104 7.594 7.594 0 01-3.285 3.78 2.348 2.348 0 00-.454 4.466l-.003.007a7.603 7.603 0 013.896 3.964 7.6 7.6 0 01.245 5.354 2.348 2.348 0 003.412 2.968 7.595 7.595 0 015.091.208 7.596 7.596 0 013.786 3.293 2.348 2.348 0 004.465.445l.007.003a7.602 7.602 0 013.963-3.896 7.599 7.599 0 015.343-.248 2.348 2.348 0 002.978-3.407 7.597 7.597 0 01.209-5.092 7.596 7.596 0 013.29-3.784 2.348 2.348 0 00.447-4.466l.003-.006a7.603 7.603 0 01-3.897-3.963 7.6 7.6 0 01-.247-5.345 2.348 2.348 0 00-3.412-2.975c-1.615.5-3.4.468-5.088-.208a7.595 7.595 0 01-3.778-3.28h-.001zm8.323 22.28a12.285 12.285 0 00-.873 5.184 12.287 12.287 0 00-5.145.992 12.286 12.286 0 00-4.285 3.052 12.286 12.286 0 00-4.342-2.94 12.284 12.284 0 00-5.184-.871 12.284 12.284 0 00-.992-5.146 12.286 12.286 0 00-3.05-4.282 12.285 12.285 0 002.937-4.341c.661-1.645.959-3.414.872-5.185a12.288 12.288 0 005.148-.993A12.285 12.285 0 0019.835 6.6a12.285 12.285 0 004.34 2.936c1.645.662 3.413.959 5.184.872a12.286 12.286 0 00.993 5.145 12.285 12.285 0 003.05 4.284 12.286 12.286 0 00-2.935 4.341zm-14.295-2.924a1.756 1.756 0 00-2.845 2.057 8.274 8.274 0 006.718 3.42 8.274 8.274 0 006.718-3.42 1.755 1.755 0 10-2.845-2.057 4.761 4.761 0 01-3.873 1.965 4.763 4.763 0 01-3.873-1.965z" fill="url(#prefix__paint0_linear_3_177)"/></g><defs><linearGradient id="prefix__paint0_linear_3_177" x1="10.833" y1="-1.667" x2="25.833" y2="34.999" gradientUnits="userSpaceOnUse"><stop stop-color="#FFAE31"/><stop offset=".601" stop-color="#AB5EBD"/><stop offset="1" stop-color="#4D40B5"/></linearGradient><clipPath id="prefix__clip0_3_177"><path fill="transparent" d="M0 0h40v40H0z"/></clipPath></defs></svg>
